multiqc/multiqc_logo_dark.svg

<?xml version="1.0" encoding="utf-8"?>
<!-- Generator: Adobe Illustrator 28.3.0, SVG Export Plug-In . SVG Version: 6.00 Build 0)  -->
<svg version="1.1" id="Layer_1" xmlns="http://www.w3.org/2000/svg" xmlns:xlink="http://www.w3.org/1999/xlink" x="0px" y="0px"
	 viewBox="0 0 1560 500" style="enable-background:new 0 0 1560 500;" xml:space="preserve">
<style type="text/css">
	.st0{fill:#160F26;}
</style>
<path class="st0" d="M167.1,244.6c2.6-39.5,34.3-71.1,73.8-73.5V125c-65,2.6-117.2,54.7-119.9,119.6H167.1z"/>
<path class="st0" d="M240.7,328.9c-39.4-2.6-71.1-34.3-73.5-73.8h-46.1c2.6,65,54.7,117.2,119.6,119.9V328.9z"/>
<path class="st0" d="M251.4,171.1c39.4,2.6,71.1,34.3,73.5,73.8H371c-2.6-65-54.7-117.2-119.6-119.9V171.1z"/>
<path class="st0" d="M371,328.9c-39.4-2.6-71.1-34.3-73.5-73.8h-46.1c2.6,65,54.7,117.2,119.6,119.9V328.9z"/>
<path class="st0" d="M1221.9,375v-70.4h-4.9c-2.2,4.1-5.5,8-9.7,11.7c-4.3,3.8-9.7,6.8-16.3,9.3c-6.6,2.4-14.7,3.6-24.5,3.6
	c-12.6,0-24.1-3-34.7-9.1c-10.5-6.1-18.9-14.8-25.2-26.3c-6.3-11.5-9.4-25.3-9.4-41.5v-4.6c0-16.2,3.2-30,9.6-41.5
	c6.4-11.5,14.8-20.2,25.4-26.3c10.5-6.1,22-9.1,34.3-9.1c14.6,0,25.8,2.6,33.6,7.9c7.8,5.3,13.6,11.3,17.5,17.9h4.9v-25.8h30.7V375
	L1221.9,375L1221.9,375z M1175.4,301.8c13.8,0,25-4.4,33.7-13.1c8.7-8.7,13.1-21.2,13.1-37.4v-2.7c0-16-4.4-28.4-13.2-37.1
	c-8.8-8.7-20-13.1-33.6-13.1c-13.6,0-24.5,4.4-33.3,13.1c-8.8,8.7-13.2,21.1-13.2,37.1v2.7c0,16.2,4.4,28.7,13.2,37.4
	C1151,297.5,1162,301.8,1175.4,301.8z"/>
<path class="st0" d="M1356.9,329.2c-14.4,0-27.4-3-39.1-9.1c-11.7-6.1-20.9-14.9-27.7-26.5c-6.8-11.6-10.2-25.4-10.2-41.7v-4
	c0-16.2,3.4-30,10.2-41.5c6.8-11.5,16-20.3,27.7-26.5c11.6-6.2,24.7-9.3,39.1-9.3c14.4,0,26.6,2.6,36.8,7.9
	c10.1,5.3,18.3,12.3,24.5,21c6.2,8.7,10.2,18.3,12,28.9l-30.4,6.4c-1-6.7-3.1-12.8-6.4-18.2c-3.2-5.5-7.8-9.8-13.7-13.1
	c-5.9-3.2-13.3-4.9-22.2-4.9c-8.9,0-16.6,2-23.6,5.9c-7,4-12.5,9.6-16.6,17c-4.1,7.4-6.1,16.4-6.1,26.9v2.7c0,10.5,2,19.6,6.1,27.1
	c4,7.5,9.6,13.2,16.6,17c7,3.9,14.8,5.8,23.6,5.8c13.2,0,23.2-3.4,30.1-10.2c6.9-6.8,11.2-15.5,13.1-26l30.4,7
	c-2.4,10.3-6.7,19.9-12.9,28.6c-6.2,8.7-14.3,15.7-24.5,20.8C1383.5,326.6,1371.3,329.2,1356.9,329.2L1356.9,329.2z"/>
<path class="st0" d="M451.1,329.2V170.8h30.7v20.1h4.9c2.8-5.3,7.4-9.9,13.7-14c6.3-4.1,14.8-6.1,25.5-6.1s20.1,2.3,26.9,6.8
	s11.9,10.4,15.3,17.5h4.9c3.4-6.9,8.5-12.7,15-17.3c6.6-4.7,16-7,28.1-7c9.7,0,18.3,2,25.8,5.9s13.5,9.8,17.9,17.6
	c4.5,7.8,6.7,17.5,6.7,29v105.8h-31.3V225.8c0-9.1-2.5-16.2-7.4-21.1c-5-5-12-7.5-21.1-7.5c-9.7,0-17.5,3.1-23.4,9.4
	c-5.9,6.3-8.8,15.3-8.8,27.1v95.5h-31.3V225.8c0-9.1-2.5-16.2-7.4-21.1c-5-5-12-7.5-21.1-7.5c-9.7,0-17.5,3.1-23.4,9.4
	c-5.9,6.3-8.8,15.3-8.8,27.1v95.5H451.1L451.1,329.2z"/>
<path class="st0" d="M755.5,328.9c-11.3,0-21.5-2.5-30.4-7.6c-8.9-5.1-15.9-12.3-21-21.6s-7.6-20.5-7.6-33.4v-95.4h31.3v93.3
	c0,13,3.2,22.6,9.7,28.7c6.5,6.2,15.5,9.3,27.1,9.3c12.8,0,23-4.3,30.9-12.9c7.8-8.6,11.7-21,11.7-37.2v-81.1h31.3v158.4h-30.7
	v-25.6H803c-2.8,6.1-7.9,11.8-15.2,17.2S769.7,328.9,755.5,328.9L755.5,328.9z"/>
<path class="st0" d="M868.5,329.2V125h31.3v204.2H868.5z"/>
<path class="st0" d="M1036,329.2V170.8h31.3v158.4H1036z"/>
<path class="st0" d="M1006,196.5v-25.7h-19.5l-17.1,17.1h-8.2V125h-31.4v174c0,9.2,2.7,16.5,8.1,22c5.4,5.5,12.7,8.2,22.1,8.2h46
	V303h-35.9c-5.9,0-8.8-3-8.8-9.2v-97.3L1006,196.5L1006,196.5z"/>
</svg>

<svg width="1560" height="500" viewBox="0 0 1560 500" fill="none" xmlns="http://www.w3.org/2000/svg">
<path d="M167.1 244.6C169.7 205.1 201.4 173.5 240.9 171.1V125C175.9 127.6 123.7 179.7 121 244.6H167.1Z" fill="#201637"/>
<path d="M240.7 328.9C201.3 326.3 169.6 294.6 167.2 255.1H121.1C123.7 320.1 175.8 372.3 240.7 375V328.9Z" fill="#201637"/>
<path d="M251.4 171.1C290.8 173.7 322.5 205.4 324.9 244.9H371C368.4 179.9 316.3 127.7 251.4 125V171.1Z" fill="#201637"/>
<path d="M371 328.9C331.6 326.3 299.9 294.6 297.5 255.1H251.4C254 320.1 306.1 372.3 371 375V328.9Z" fill="#201637"/>
<path d="M1221.9 375V304.6H1217C1214.8 308.7 1211.5 312.6 1207.3 316.3C1203 320.1 1197.6 323.1 1191 325.6C1184.4 328 1176.3 329.2 1166.5 329.2C1153.9 329.2 1142.4 326.2 1131.8 320.1C1121.3 314 1112.9 305.3 1106.6 293.8C1100.3 282.3 1097.2 268.5 1097.2 252.3V247.7C1097.2 231.5 1100.4 217.7 1106.8 206.2C1113.2 194.7 1121.6 186 1132.2 179.9C1142.7 173.8 1154.2 170.8 1166.5 170.8C1181.1 170.8 1192.3 173.4 1200.1 178.7C1207.9 184 1213.7 190 1217.6 196.6H1222.5V170.8H1253.2V375H1221.9ZM1175.4 301.8C1189.2 301.8 1200.4 297.4 1209.1 288.7C1217.8 280 1222.2 267.5 1222.2 251.3V248.6C1222.2 232.6 1217.8 220.2 1209 211.5C1200.2 202.8 1189 198.4 1175.4 198.4C1161.8 198.4 1150.9 202.8 1142.1 211.5C1133.3 220.2 1128.9 232.6 1128.9 248.6V251.3C1128.9 267.5 1133.3 280 1142.1 288.7C1151 297.5 1162 301.8 1175.4 301.8Z" fill="#201637"/>
<path d="M1356.9 329.2C1342.5 329.2 1329.5 326.2 1317.8 320.1C1306.1 314 1296.9 305.2 1290.1 293.6C1283.3 282 1279.9 268.2 1279.9 251.9V247.9C1279.9 231.7 1283.3 217.9 1290.1 206.4C1296.9 194.9 1306.1 186.1 1317.8 179.9C1329.4 173.7 1342.5 170.6 1356.9 170.6C1371.3 170.6 1383.5 173.2 1393.7 178.5C1403.8 183.8 1412 190.8 1418.2 199.5C1424.4 208.2 1428.4 217.8 1430.2 228.4L1399.8 234.8C1398.8 228.1 1396.7 222 1393.4 216.6C1390.2 211.1 1385.6 206.8 1379.7 203.5C1373.8 200.3 1366.4 198.6 1357.5 198.6C1348.6 198.6 1340.9 200.6 1333.9 204.5C1326.9 208.5 1321.4 214.1 1317.3 221.5C1313.2 228.9 1311.2 237.9 1311.2 248.4V251.1C1311.2 261.6 1313.2 270.7 1317.3 278.2C1321.3 285.7 1326.9 291.4 1333.9 295.2C1340.9 299.1 1348.7 301 1357.5 301C1370.7 301 1380.7 297.6 1387.6 290.8C1394.5 284 1398.8 275.3 1400.7 264.8L1431.1 271.8C1428.7 282.1 1424.4 291.7 1418.2 300.4C1412 309.1 1403.9 316.1 1393.7 321.2C1383.5 326.6 1371.3 329.2 1356.9 329.2Z" fill="#201637"/>
<path d="M451.1 329.2V170.8H481.8V190.9H486.7C489.5 185.6 494.1 181 500.4 176.9C506.7 172.8 515.2 170.8 525.9 170.8C536.6 170.8 546 173.1 552.8 177.6C559.6 182.1 564.7 188 568.1 195.1H573C576.4 188.2 581.5 182.4 588 177.8C594.6 173.1 604 170.8 616.1 170.8C625.8 170.8 634.4 172.8 641.9 176.7C649.4 180.6 655.4 186.5 659.8 194.3C664.3 202.1 666.5 211.8 666.5 223.3V329.1H635.2V225.8C635.2 216.7 632.7 209.6 627.8 204.7C622.8 199.7 615.8 197.2 606.7 197.2C597 197.2 589.2 200.3 583.3 206.6C577.4 212.9 574.5 221.9 574.5 233.7V329.2H543.2V225.8C543.2 216.7 540.7 209.6 535.8 204.7C530.8 199.7 523.8 197.2 514.7 197.2C505 197.2 497.2 200.3 491.3 206.6C485.4 212.9 482.5 221.9 482.5 233.7V329.2H451.1Z" fill="#201637"/>
<path d="M755.5 328.9C744.2 328.9 734 326.4 725.1 321.3C716.2 316.2 709.2 309 704.1 299.7C699 290.4 696.5 279.2 696.5 266.3V170.9H727.8V264.2C727.8 277.2 731 286.8 737.5 292.9C744 299.1 753 302.2 764.6 302.2C777.4 302.2 787.6 297.9 795.5 289.3C803.3 280.7 807.2 268.3 807.2 252.1V171H838.5V329.4H807.8V303.8H803C800.2 309.9 795.1 315.6 787.8 321C780.5 326.4 769.7 328.9 755.5 328.9Z" fill="#201637"/>
<path d="M868.5 329.2V125H899.8V329.2H868.5Z" fill="#201637"/>
<path d="M1036 329.2V170.8H1067.3V329.2H1036Z" fill="#201637"/>
<path d="M1006 196.5V170.8H986.5L969.4 187.9H961.2V125H929.8V299C929.8 308.2 932.5 315.5 937.9 321C943.3 326.5 950.6 329.2 960 329.2H1006V303H970.1C964.2 303 961.3 300 961.3 293.8V196.5H1006Z" fill="#201637"/>
</svg>
